X:046
T:Duke of Sussex’s Reel TS.046
T:Mayday,aka TS.046
T:England’s Glory,aka TS.046
M:C|
L:1/8
Q:1/2=90
S:Thomas Sands’ MS,1810,Lincolnshire
R:reel
O:England;Lincolnshire
Z:vmp.Ruairidh Greig, 2011
K:F
fefc BAGF|AcBA BGG2|fefc BAGF|AcGB AFF2:|
|:AFcF dFcF|AcBA BG”tr”G2|AFcF dFcF|AcGB AFF2:|]

